X:1
T:Title
%%score ( 1 2 ) { 3 | 4 }
L:1/8
Q:1/4=130
M:4/2
K:G
V:1 treble nm="Grand Piano, Staff 1"
V:2 treble 
V:3 treble nm="Choir Pad, Confidence (Moore), LM"
V:4 bass 
V:1
 [GB]4 [GB]2 [FA]2 G4 [DB]4 | [CE]2 [EA]2 G2 F2 [DG]6 [DB]2 | [DA]4 [EA]4 A2 d2 [DA]2 [EG]2 | %3
w: By~Arranged~from~W.~Moore * * * *|||
 [DF]4 [^CE]4 D6 D2 | [FB]6 [FA]2 G6 [DG]2 | [Gd]6 [Ac]2 [GB]4 G4 | [Ge]4 [Fd]4 [Ec]4 [DB]4 | %7
w: ||||
 B2 A2 G2 F2 [DG]8 |] %8
w: |
V:2
 x16 | z4 D4 z8 | z8 D4 z4 | x16 | x16 | x16 | x16 | E4 D4 z8 |] %8
V:3
 D4 D2 C2 B,4 G,4 | G,2 C2 B,2 A,2 B,6 G,2 | F,4 G,4 F,4 A,2 B,2 | A,4 A,2 G,2 F,6[K:treble] D2 | %4
 D6 D2 D4 C2[K:bass] B,2 | B,6 D2 D4 B,4 | C4 A,4 G,2 A,2 B,2[K:treble] D2 | D2 C2 B,2 A,2 B,8 |] %8
V:4
 G,4 G,2 D,2 E,4 B,,4 | C,4 D,4 G,,8 | D,4 ^C,4 D,4 F,2 G,2 | z4 A,,4 D,6 D,2 | %4
 z4 z2 C2 B,4 A,2 G,2 | E,6 F,2 G,4 G,4 | C,4 D,4 E,2 F,2 G,4 | C,4 D,4 G,,8 |] %8

